X:1
T:Northridge, 77.77 D
T:Northridge, 77.77 D
T:Hart Pease Danks, 1881
T:Public Domain Courtesy of the Cyber Hymnal™
C:Hart Pease Danks, 1881
Z:Public Domain
Z:Courtesy of the Cyber Hymnal™
%%score ( 1 2 ) ( 3 4 )
L:1/8
Q:1/4=110
M:4/4
K:Eb
V:1 treble 
V:2 treble 
V:3 bass 
V:4 bass 
V:1
 E2 E2 [DF]2 [DF]2 | [EG]2 [EB]2 [DF]4 | [CF]2 [=EG]2 [FA]2 [CF]2 | [B,E]2 [B,D]2 [B,E]4 | %4
 E2 E2 [DF]2 [DF]2 | [EG]2 [EB]2 [DF]4 | [EG]2 [EG]2 [DF]2 [FB]2 | [EB]2 [E=A]2 [DB]4 | %8
 [EB]2 [EB]2 [EB]2 [EB]2 | [Ec]2 [Ec]2 [EB]4 | [Ec]2 [Ee]2 [EB]2 [EG]2 | E2 [EG]2 [DF]4 | %12
 E2 E2 [DF]2 [DF]2 | [EG]2 [EB]2 [DF]4 | [CF]2 [=EG]2 [FA]2 [CF]2 | [B,E]2 [B,D]2 [B,E]4 |] %16
V:2
 E2 E2 x4 | x8 | x8 | x8 | E2 E2 x4 | x8 | x8 | x8 | x8 | x8 | x8 | E2 x6 | E2 E2 x4 | x8 | x8 | %15
 x8 |] %16
V:3
 [E,G,]2 [E,G,]2 [B,,B,]2 [B,,B,]2 | [E,B,]2 [G,B,]2 B,4 | [A,C]2 [G,C]2 [F,C]2 [A,,A,]2 | %3
 [B,,G,]2 (F,A,) [E,G,]4 | [E,G,]2 [E,G,]2 [B,,B,]2 [B,,B,]2 | [E,B,]2 [G,B,]2 B,4 | %6
 [E,B,]2 [E,B,]2 [F,B,]2 [F,D]2 | [F,C]2 [F,C]2 [B,,B,]4 | [E,G,]2 [E,G,]2 [E,G,]2 [E,G,]2 | %9
 [A,,A,]2 [C,A,]2 [E,G,]4 | [A,,A,]2 [C,A,]2 [E,G,]2 [E,B,]2 | [G,B,]2 [E,B,]2 [B,,B,]4 | %12
 [E,G,]2 [E,G,]2 [B,,B,]2 [B,,B,]2 | [E,B,]2 [G,B,]2 B,4 | [A,C]2 [G,C]2 [F,C]2 [A,,A,]2 | %15
 [B,,G,]2 (F,A,) [E,G,]4 |] %16
V:4
 x8 | x4 B,4 | x8 | x2 B,,2 x4 | x8 | x4 B,4 | x8 | x8 | x8 | x8 | x8 | x8 | x8 | x4 B,4 | x8 | %15
 x2 B,,2 x4 |] %16

